X: 0873
M: 6/8
L: 1/8
K: G
dBG Gge | dBG Gge | dcB dcB | ABA/B/ A2B/c/ |\
dBG Gge | dBG Gge | dcB cBA | GAG/A/ G2 H:|
|: G |\

